src/travel-places/sky-weather/1F313.svg

<svg id="emoji" viewBox="0 0 72 72" xmlns="http://www.w3.org/2000/svg">
  <g id="grid">
    <path fill="#b2b2b2" d="M68,4V68H4V4H68m4-4H0V72H72V0Z"/>
    <path fill="none" stroke="#00a4ff" stroke-miterlimit="10" stroke-width="0.1" d="M12.923,10.9583H59.0769A1.9231,1.9231,0,0,1,61,12.8814V59.0352a1.9231,1.9231,0,0,1-1.9231,1.9231H12.9231A1.9231,1.9231,0,0,1,11,59.0352V12.8813a1.923,1.923,0,0,1,1.923-1.923Z"/>
    <rect x="16" y="4" rx="2.2537" width="40" height="64" fill="none" stroke="#00a4ff" stroke-miterlimit="10" stroke-width="0.1"/>
    <rect x="16" y="4" rx="2.2537" width="40" height="64" transform="translate(72) rotate(90)" fill="none" stroke="#00a4ff" stroke-miterlimit="10" stroke-width="0.1"/>
    <circle cx="36" cy="36" r="29" fill="none" stroke="#00a4ff" stroke-miterlimit="10" stroke-width="0.1"/>
  </g>
  <g id="color">
    <path fill="#fcea2b" d="M49.4515,44.8757a1.5009,1.5009,0,0,0,0-3,1.5009,1.5009,0,0,0,0,3Z"/>
    <path fill="#fcea2b" stroke="#fcea2b" stroke-linecap="round" stroke-linejoin="round" stroke-width="2" d="M64,36A28,28,0,0,0,36,8V64A28,28,0,0,0,64,36Z"/>
    <path fill="#3f3f3f" stroke="#3f3f3f" stroke-linecap="round" stroke-linejoin="round" stroke-width="2" d="M8,36A28,28,0,0,0,36,64V8A28,28,0,0,0,8,36Z"/>
  </g>
  <g id="line">
    <circle cx="36" cy="36" r="28" fill="none" stroke="#000" stroke-linecap="round" stroke-linejoin="round" stroke-width="2"/>
    <path fill="none" stroke="#000" stroke-linecap="round" stroke-linejoin="round" stroke-width="2" d="M64,36A28,28,0,0,0,36,8V64A28,28,0,0,0,64,36Z"/>
  </g>
</svg>

<svg viewBox="0 0 72 72" xmlns="http://www.w3.org/2000/svg"><path fill="#b2b2b2" d="M68 4v64H4V4h64m4-4H0v72h72V0z"/><path fill="none" stroke="#00a4ff" stroke-miterlimit="10" stroke-width=".1" d="M12.923 10.958h46.154A1.923 1.923 0 0161 12.881v46.154a1.923 1.923 0 01-1.923 1.923H12.923A1.923 1.923 0 0111 59.035V12.881a1.923 1.923 0 011.923-1.923z"/><rect x="16" y="4" rx="2.254" width="40" height="64" fill="none" stroke="#00a4ff" stroke-miterlimit="10" stroke-width=".1"/><rect x="16" y="4" rx="2.254" width="40" height="64" transform="rotate(90 36 36)" fill="none" stroke="#00a4ff" stroke-miterlimit="10" stroke-width=".1"/><circle cx="36" cy="36" r="29" fill="none" stroke="#00a4ff" stroke-miterlimit="10" stroke-width=".1"/><g stroke-linecap="round" stroke-miterlimit="10" stroke-width="6" stroke="#fff" fill="none" stroke-linejoin="round"><circle cx="36" cy="36" r="28"/><path d="M64 36A28 28 0 0036 8v56a28 28 0 0028-28z"/></g><path fill="#fcea2b" d="M49.452 44.876a1.5 1.5 0 000-3 1.5 1.5 0 000 3z"/><path fill="#fcea2b" stroke="#fcea2b" stroke-linecap="round" stroke-linejoin="round" stroke-width="2" d="M64 36A28 28 0 0036 8v56a28 28 0 0028-28z"/><path fill="#3f3f3f" stroke="#3f3f3f" stroke-linecap="round" stroke-linejoin="round" stroke-width="2" d="M8 36a28 28 0 0028 28V8A28 28 0 008 36z"/><g fill="none" stroke="#000" stroke-linecap="round" stroke-linejoin="round" stroke-width="2"><circle cx="36" cy="36" r="28"/><path d="M64 36A28 28 0 0036 8v56a28 28 0 0028-28z"/></g></svg>
